X:758
T:Reel 758
M:4/4
K:Dmaj
L:1/8
BABd cAAB|ABAF GFEd|BABc defg|afdf edcd|eA (3AAA eAeA|gfed cABd|ABAF AFEF|GBAG FDD2|bbaf defg|afbf ecA2|faab afdf|abag fdd2|faag fddf|gfed cde2| (3fga ge dcdB|AFDF E2D2|fgaf dfba|fbba fba2|faaf bgag| (3fga ed eBB2| (3fgf df  (3efg a2|bfaf gfeg|fdec dBAG|FGAG FDD2|
